img/scene_2_wave_2.svg

<svg width="2178" height="741" viewBox="0 0 2178 741" fill="none" xmlns="http://www.w3.org/2000/svg">
<g clip-path="url(#clip0)">
<path d="M75.8592 201.702C139.979 222.277 213.868 221.787 279.946 206.367C403.335 177.441 503.35 100.017 636.38 92.3889C696.793 88.8898 750.909 104.391 800.759 128.395C847.054 150.685 889.921 177.698 940.657 194.645C1001.99 215.139 1075.62 220.889 1142.11 214.707C1212.84 208.129 1276.46 186.224 1333.91 155.747C1389.32 126.342 1440 91.3042 1500.14 66.9852C1530.12 54.8666 1563.79 44.0076 1598.44 42.6896C1632.69 41.3832 1666.44 47.3551 1697.65 57.5726C1758.9 77.576 1810.92 108.893 1865.14 137.295C1907.6 159.456 1953.75 177.511 2004.5 187.169C2051.61 196.127 2103.27 199.066 2150.11 187.519C2159.63 185.188 2168.98 182.215 2178.09 178.619V741.012H0V159.666C20.3201 177.453 45.7231 192.033 75.8592 201.702Z" fill="#65D5F5"/>
<path d="M83.9616 225.624C135.176 240.601 191.659 242.175 244.913 232.144C311.528 219.641 369.83 190.913 434.812 174.898C464.901 167.48 496.53 162.29 528.45 163.69C564.727 165.46 600.361 173.943 633.547 188.708C665.654 202.833 696.058 218.848 728.736 232.343C758.393 244.777 788.716 255.559 819.564 264.64C951.942 302.873 1098.99 299.713 1224.38 248.52C1286.81 223.047 1345.81 192.534 1401.83 160.05C1455.38 129.013 1519.04 89.4146 1591.07 88.9014C1659.06 88.3999 1718.39 117.501 1771.39 145.727C1797.35 159.561 1822.79 174.07 1849.89 186.726C1882.11 201.577 1915.37 214.052 1949.41 224.05C2005.61 240.776 2072.65 255.46 2132.6 240.239C2148.42 236.235 2163.67 230.268 2178 222.475V741.012H0V184.649C25.4375 203.014 53.8371 216.873 83.9616 225.624V225.624Z" fill="#3DCBF2"/>
<path d="M138.51 289.705C204.716 296.388 264.604 274.542 322.276 253.442C385.918 230.115 449.513 208.514 522.376 210.648C660.664 214.707 773.689 276.513 893.605 319.681C952.408 340.851 1016.9 360.773 1083.56 359.431C1153.36 358.008 1223.31 338.88 1279.34 308.379C1331.96 279.744 1372.75 241.429 1423.78 211.464C1450.33 195.87 1480.17 181.629 1513.91 176.473C1546.22 171.516 1579.4 173.58 1610.85 180.707C1674.96 195.252 1730.54 224.551 1784.74 252.661C1840.7 281.715 1898.33 310.362 1963.28 327.519C2024.16 343.603 2089.85 350.065 2151.89 333.269C2160.87 330.843 2169.56 328.009 2178 324.895V741.012H0V234.897C39.2295 262.249 85.1624 284.316 138.51 289.705Z" fill="#65D5F5"/>
<path d="M112.804 307.959C174.417 314.351 232.066 299.199 284.714 276.607C342.014 252.019 396.27 221.25 462.826 211.756C597.815 192.499 711.4 260.977 818.899 309.732C875.826 335.544 934.734 356.457 1001.34 364.435C1067.94 372.413 1143.57 373.159 1208.35 357.192C1323.33 328.884 1381.95 236.681 1502.29 215.22C1655.86 187.833 1771.37 280.269 1900.44 322.2C1931.92 332.418 1965.6 340.069 2000.28 340.256C2031.84 340.255 2063.19 335.114 2093.09 325.035C2123.19 314.82 2151.75 300.553 2178 282.625V741.012H0V263.077C28.4457 286.684 67.3488 303.235 112.804 307.959Z" fill="#0AC0EF"/>
<path d="M70.7996 435.187C113.631 408.431 152.639 379.271 205.8 361.076C271.634 338.541 349.591 323.892 424.32 330.447C492.846 336.407 552.559 359.606 608.028 385.43C638.141 399.426 667.484 413.796 700.29 425.087C732.496 436.223 765.436 445.113 798.871 451.692C869.71 465.332 941.913 470.535 1013.97 467.193C1088.29 463.845 1157.78 450.502 1228.32 435.549C1299.7 420.386 1374.05 404.733 1450.06 407.626C1490.64 409.177 1528.57 415.791 1564.78 427.968C1597.67 439.037 1628.37 452.59 1660.72 464.289C1729.05 488.992 1800.09 506.5 1875.54 519.108C1941.26 530.096 2012.36 534.796 2076.81 517.79C2108.72 509.369 2138.6 497.274 2162.61 480.979C2167.94 477.364 2173.02 473.62 2178 469.806V741.012H0V469.467C24.8395 460.804 48.5966 449.301 70.7996 435.187V435.187Z" fill="#0AAAEF"/>
<path d="M1825.51 118.574C1823.41 117.128 1821.31 115.67 1819.23 114.189C1794.47 96.6229 1767.82 76.083 1737.63 78.7307C1736.59 54.6333 1712.21 38.0941 1688.83 32.2272C1665.44 26.3603 1640.28 26.8618 1618.35 16.8077C1605.7 10.9758 1594.16 1.71472 1580.32 0.210093C1564.4 -1.51615 1549.36 7.47663 1533.49 9.75107C1516.87 12.0838 1500.12 7.05673 1483.36 6.95176C1466.61 6.84678 1447.11 14.3583 1443.12 30.6876C1428.15 26.232 1410.62 38.164 1409.31 53.7235C1395.61 51.5074 1380.75 51.9973 1368.96 59.3338C1357.18 66.6703 1349.87 82.3231 1355.44 95.0366C1346.11 88.1667 1332.75 94.8734 1325.13 103.575C1317.5 112.276 1311.68 123.403 1301.1 128.068C1285.86 134.787 1266.56 125.386 1252.14 133.667C1234.52 143.78 1233.61 160.027 1209.54 159.736C1170.22 159.246 1188.17 185.664 1163.4 198.576C1064.58 250.037 932.216 193.759 844.163 145.727C836.631 141.622 829.065 137.295 823.178 131.101C818.188 125.887 814.539 119.531 809.678 114.212C800.876 104.601 788.693 98.9557 776.79 93.567C760.947 86.3588 744.288 78.9989 726.906 80.037C713.534 61.235 682.453 58.9022 666.435 75.5115C647.724 59.6254 616.993 60.5235 599.249 77.4943C597.662 72.7965 594.652 68.7096 590.638 65.8004C586.624 62.8913 581.804 61.3042 576.848 61.2593C571.891 61.2145 567.044 62.714 562.977 65.55C558.911 68.386 555.828 72.4178 554.156 77.0861C548.852 72.7704 542.537 69.8763 535.807 68.6765C529.076 67.4766 522.151 68.0105 515.684 70.2278C502.382 74.9516 494.175 86.3238 489.722 99.119C465.613 90.9543 464.797 120.417 455.039 134.355C442.052 152.924 415.028 167.994 391.782 164.588C420.799 168.833 449.828 158.989 477.504 149.285L522.061 133.679C534.792 140.677 552.314 137.178 561.454 125.911C564.776 135.242 582.345 131.229 581.273 121.362C605.148 135.965 639.633 129.433 656.537 107.12C663.118 113.345 671.275 117.65 680.125 119.57C688.975 121.49 698.182 120.952 706.749 118.014C707.623 128.022 717.8 135.148 727.803 136.105C737.806 137.061 747.622 133.387 756.948 129.783C755.795 132.757 755.634 136.025 756.49 139.098C757.345 142.171 759.17 144.885 761.693 146.836C768.991 152.189 779.052 149.623 788.076 148.947C814.621 146.987 838.485 163.398 861.696 176.45C897.718 196.644 937.138 210.054 977.998 216.013C1002.63 224.178 1043.59 224.726 1058.09 226.371C1089.36 229.87 1102.73 228.249 1134.04 225.204C1195.98 219.291 1256.71 201.76 1313.14 175.715C1395.92 137.469 1473 81.2384 1563.22 67.6501C1638.09 56.4179 1715.08 76.4212 1782.39 111.168C1826.79 134.099 1867.78 163.316 1912.67 185.244C1957.57 207.172 2008.27 221.752 2057.44 212.538C1974.21 198.493 1895.06 166.424 1825.51 118.574V118.574Z" fill="#C8FFFF"/>
</g>
<defs>
<clipPath id="clip0">
<rect width="2178" height="741" fill="white"/>
</clipPath>
</defs>
</svg>

<svg width="2178" height="741" fill="none" xmlns="http://www.w3.org/2000/svg">
  <g clip-path="url(#a)">
    <path d="M75.86 201.702c64.119 20.575 138.008 20.085 204.086 4.665C403.335 177.441 503.35 100.017 636.38 92.389c60.413-3.5 114.529 12.002 164.379 36.006 46.295 22.29 89.162 49.303 139.898 66.25 61.333 20.494 134.963 26.244 201.453 20.062 70.73-6.578 134.35-28.483 191.8-58.96 55.41-29.405 106.09-64.443 166.23-88.762 29.98-12.118 63.65-22.977 98.3-24.295 34.25-1.307 68 4.665 99.21 14.883 61.25 20.003 113.27 51.32 167.49 79.722 42.46 22.161 88.61 40.216 139.36 49.874 47.11 8.958 98.77 11.897 145.61.35a216.35 216.35 0 0 0 27.98-8.9v562.393H0V159.666c20.32 17.787 45.723 32.367 75.86 42.036Z" fill="#65D5F5"/>
    <path d="M83.962 225.624c51.214 14.977 107.697 16.551 160.951 6.52 66.615-12.503 124.917-41.231 189.899-57.246 30.089-7.418 61.718-12.608 93.638-11.208a293.757 293.757 0 0 1 105.097 25.018c32.107 14.125 62.511 30.14 95.189 43.635a871.211 871.211 0 0 0 90.828 32.297c132.378 38.233 279.426 35.073 404.816-16.12 62.43-25.473 121.43-55.986 177.45-88.47 53.55-31.037 117.21-70.635 189.24-71.149 67.99-.501 127.32 28.6 180.32 56.826 25.96 13.834 51.4 28.343 78.5 40.999a727.527 727.527 0 0 0 99.52 37.324c56.2 16.726 123.24 31.41 183.19 16.189a195.348 195.348 0 0 0 45.4-17.764v518.537H0V184.649a274.032 274.032 0 0 0 83.962 40.975Z" fill="#3DCBF2"/>
    <path d="M138.51 289.705c66.206 6.683 126.094-15.163 183.766-36.263 63.642-23.327 127.237-44.928 200.1-42.794 138.288 4.059 251.313 65.865 371.229 109.033 58.803 21.17 123.295 41.092 189.955 39.75 69.8-1.423 139.75-20.551 195.78-51.052 52.62-28.635 93.41-66.95 144.44-96.915 26.55-15.594 56.39-29.835 90.13-34.991 32.31-4.957 65.49-2.893 96.94 4.234 64.11 14.545 119.69 43.844 173.89 71.954 55.96 29.054 113.59 57.701 178.54 74.858 60.88 16.084 126.57 22.546 188.61 5.75 8.98-2.426 17.67-5.26 26.11-8.374v416.117H0V234.897c39.23 27.352 85.162 49.419 138.51 54.808Z" fill="#65D5F5"/>
    <path d="M112.804 307.959c61.613 6.392 119.262-8.76 171.91-31.352 57.3-24.588 111.556-55.357 178.112-64.851 134.989-19.257 248.574 49.221 356.073 97.976 56.927 25.812 115.835 46.725 182.441 54.703 66.6 7.978 142.23 8.724 207.01-7.243 114.98-28.308 173.6-120.511 293.94-141.972 153.57-27.387 269.08 65.049 398.15 106.98 31.48 10.218 65.16 17.869 99.84 18.056a290.59 290.59 0 0 0 92.81-15.221 349.946 349.946 0 0 0 84.91-42.41v458.387H0V263.077c28.446 23.607 67.349 40.158 112.804 44.882Z" fill="#0AC0EF"/>
    <path d="M70.8 435.187c42.831-26.756 81.839-55.916 135-74.111 65.834-22.535 143.791-37.184 218.52-30.629 68.526 5.96 128.239 29.159 183.708 54.983 30.113 13.996 59.456 28.366 92.262 39.657a737.215 737.215 0 0 0 98.581 26.605 913.739 913.739 0 0 0 215.099 15.501c74.32-3.348 143.81-16.691 214.35-31.644 71.38-15.163 145.73-30.816 221.74-27.923 40.58 1.551 78.51 8.165 114.72 20.342 32.89 11.069 63.59 24.622 95.94 36.321 68.33 24.703 139.37 42.211 214.82 54.819 65.72 10.988 136.82 15.688 201.27-1.318 31.91-8.421 61.79-20.516 85.8-36.811 5.33-3.615 10.41-7.359 15.39-11.173v271.206H0V469.467a341.767 341.767 0 0 0 70.8-34.28Z" fill="#0AAAEF"/>
    <path d="M1825.51 118.574a487.11 487.11 0 0 1-6.28-4.385c-24.76-17.566-51.41-38.106-81.6-35.458-1.04-24.098-25.42-40.637-48.8-46.504-23.39-5.867-48.55-5.365-70.48-15.42-12.65-5.831-24.19-15.092-38.03-16.597-15.92-1.726-30.96 7.267-46.83 9.541-16.62 2.333-33.37-2.694-50.13-2.8-16.75-.104-36.25 7.407-40.24 23.737-14.97-4.456-32.5 7.476-33.81 23.036-13.7-2.217-28.56-1.727-40.35 5.61-11.78 7.336-19.09 22.99-13.52 35.703-9.33-6.87-22.69-.164-30.31 8.538-7.63 8.701-13.45 19.828-24.03 24.493-15.24 6.719-34.54-2.682-48.96 5.599-17.62 10.113-18.53 26.36-42.6 26.069-39.32-.49-21.37 25.928-46.14 38.84-98.82 51.461-231.184-4.817-319.237-52.849-7.532-4.105-15.098-8.432-20.985-14.626-4.99-5.214-8.639-11.57-13.5-16.889-8.802-9.611-20.985-15.256-32.888-20.645-15.843-7.208-32.502-14.568-49.884-13.53-13.372-18.802-44.453-21.135-60.471-4.526-18.711-15.886-49.442-14.987-67.186 1.983a23.883 23.883 0 0 0-8.611-11.694 23.868 23.868 0 0 0-36.482 11.286 40.273 40.273 0 0 0-38.472-6.858c-13.302 4.724-21.509 16.096-25.962 28.891-24.109-8.165-24.925 21.298-34.683 35.236-12.987 18.569-40.011 33.639-63.257 30.233 29.017 4.245 58.046-5.599 85.722-15.303l44.557-15.606c12.731 6.998 30.253 3.499 39.393-7.768 3.322 9.331 20.891 5.318 19.819-4.549 23.875 14.603 58.36 8.071 75.264-14.242a49.641 49.641 0 0 0 50.212 10.894c.874 10.008 11.051 17.134 21.054 18.091 10.003.956 19.819-2.718 29.145-6.322a14.794 14.794 0 0 0 4.745 17.053c7.298 5.353 17.359 2.787 26.383 2.111 26.545-1.96 50.409 14.451 73.62 27.503a337.41 337.41 0 0 0 116.302 39.563c24.632 8.165 65.592 8.713 80.092 10.358 31.27 3.499 44.64 1.878 75.95-1.167 61.94-5.913 122.67-23.444 179.1-49.489 82.78-38.246 159.86-94.477 250.08-108.065 74.87-11.232 151.86 8.771 219.17 43.518 44.4 22.931 85.39 52.148 130.28 74.076 44.9 21.928 95.6 36.508 144.77 27.294a579.218 579.218 0 0 1-231.93-93.964Z" fill="#C8FFFF"/>
  </g>
  <defs>
    <clipPath id="a">
      <path fill="#fff" d="M0 0h2178v741H0z"/>
    </clipPath>
  </defs>
</svg>
